X:1
T:James Gibb editions
T:Veni sancte Spiritus - Allegri
T:#
%%score [ 1 2 3 4 ]
L:1/8
Q:1/4=160
M:none
K:C
V:1 treble nm="Soprano " snm="S"
V:2 treble nm="Alto" snm="A"
V:3 treble-8 nm="Tenor" snm="T"
V:4 bass nm="Bass" snm="B"
V:1
"^Veni sancte Spiritus""^Gregorio Allegri\n(1582-1652)" (G6 A2 B2 c2 d4) | G16 | z4 c8 B4 | %3
w: Ve\- * * * *|ni|san- cte|
 A6 A2 G8 ||[M:3/2] G4 G4 A4 | c8 B4 |[M:3/2] E4 E4 G4 | A8 G4 | A4 A4 c4 | F8 F4 || %10
w: Spi- ri- tus:|Re- ple tu-|o- rum,|re- ple tu-|o- rum,|re- ple tu-|o- rum|
 F6 F2 G4 (A4- | A2 G2 G8) ^F4 | G4 (G6 A2 B2 c2 | d8) c8 | z8 (G6 A2 | B2 c2 d8) d4- | d4 G8 E4 | %17
w: cor- da fi- de\-|* * * li-|um, ve\- * * *|* ni,|ve\- *|* * * ni|* san- cte|
 G6 G2 G8 ||[M:3/2] E4 E4 G4 | A8 G4 | G4 A4 B4 | c8 B4 |[M:3/2] B4 B4 d4 | d8 c4 || A8 ^G4 A4 | %25
w: Spi- ri- tus,|re- ple tu-|o- rum,|re- ple tu-|o- rum,|re- ple tu-|o- rum|cor- da fi-|
 (F8 E6) E2 | ^F8 z8 | z16 | z16 | z4 D4 G8 | F2 E2 F4 E8 | z4 D4 G4 F4 | %32
w: de\- * li-|um:|||et tu-|i a- mo- ris|in e- is,|
 z2 A2 B2 c2 (d3 c) B2 A2 | (^G2 A4 G2) A8 | z4 F4 _B8 | A2 G2 A4 G8 | z8 z4 D4 | G8 F4 F4 | %38
w: in e- is i\- * gnem~ ac-|cen\- * * de,|et tu-|i a- mo- ris,|et|tu- i a-|
 E8 ^F4 F4 | ^G4 A4 z4 D4 | (G6 F2 E4) D2 D2 | E2 F2 (G8 ^F4) | G8 z4 d4 | (Bcdc BAGF EDCD EFGE | %44
w: mo- ris in|e- is, in|e\- * * is i-|gnem~ ac- cen\- *|de, i-|gnem * * * * * * * * * * * * * * *|
 ^F2) F2 (G8 F4) | G16 |] %46
w: * ac- cen\- *|de.|
V:2
 z16 | (C6 D2 E2 F2 G4) | C4 E4 ^F4 G4- | G4 ^F4 G8 ||[M:3/2] D4 E4 F4 | G8 G4 |[M:3/2] G4 C4 D4 | %7
w: |Ve\- * * * *|ni san- cte Spi\-|* ri- tus:|Re- ple tu-|o- rum,|re- ple tu-|
 F8 E4 | F4 F4 E4 | D8 C4 || C8 E4 A,4 | D6 D2 D8- | D16 | z8 E8- | E4 D4 (C2 D2 E2 F2 | G12) ^F4 | %16
w: o- rum,|re- ple tu-|o- rum|cor- da fi-|de- li- um,||ve\-|* ni, ve\- * * *|* ni,|
 G4 D4 D4 C4 | D6 D2 E8 ||[M:3/2] G4 C4 D4 | F8 E4 | E4 E4 G4 | G8 G4 |[M:3/2] G4 G4 ^F4 | G8 E4 || %24
w: ve- ni san- cte|Spi- ri- tus,|re- ple tu-|o- rum,|re- ple tu-|o- rum,|re- ple tu-|o- rum|
 F4 C4 E4 (E4- | E2 D2 D8) ^C4 | D8 z8 | z16 | z8 z4 A,4 | D8 B,4 ^C4 | (D2 E4 D2) E8 | %31
w: cor- da fi- de\-|* * * li-|um:||et|tu- i a-|mo\- * * ris|
 z4 z2 D2 G,4 A,4 | z2 A,2 D2 E2 F8 | E8 z4 C4 | F8 D4 E4 | (^F2 G4 F2) G8 | z4 A,4 D8 | %37
w: in e- is,|in e- is i-|gnem, et|tu- i a-|mo\- * * ris,|et tu-|
 B,4 ^C4 D8 | A,8 z4 A,4 | D4 ^C2 C2 D2 E2 (A,4 | B,8) G,8 | z8 A,4 (D4- | D2 C2 B,4) A,4 z2 A,2 | %43
w: i a- mo-|ris in|e- is i- gnem~ ac- cen\-|* de,|in e\-|* * * is i-|
 (B,A,B,C D2) B,2 C4 G,2 G,2 | D16 | D16 |] %46
w: gnem, * * * * ac- cen- de, ac-|cen-|de.|
V:3
 z16 | z16 | z16 | z16 ||[M:3/2] B4 B4 d4 | e8 d4 |[M:3/2][K:treble-8] c4 A4 G4 | F8 C4 | %8
w: ||||Re- ple tu-|o- rum,|re- ple tu-|o- rum,|
 c4 F4 G4 | _B8 A4 || A4 A2 A2 (c8 | B6 AG A4) A4 | B8 (G6 A2 | B2 c2 d4) G4 c4- | c4 B4 e6 e2 | %15
w: re- ple tu-|o- rum|cor- da fi- de\-|* * * * li-|um. ve\- *|* * * ni san\-|* cte Spi- ri-|
 d4 B8 A4 | B8 B4 c4- | c4 B4 c8 ||[M:3/2] c4 A4 G4 | F8 C4 | c4 c4 d4 | e8 d4 | %22
w: tus, ve- ni|san- cte Spi\-|* ri- tus,|re- ple tu-|o- rum,|re- ple tu-|o- rum,|
[M:3/2][K:treble-8] d4 G4 A4 | B8 c4 || (c6 BA B4) A4- | A4 A4 A6 A2 | A8 z8 | z4 G4 c8 | %28
w: re- ple tu-|o- rum|cor\- * * * da|* fi- de- li-|um:|et tu-|
 B2 A2 B4 A8 | D4 (G6 F2 E4) | D2 G2 A2 B2 c8 | B4 z2 A2 B2 c2 d4 | c4 z2 A2 B2 A2 d4 | %33
w: i a- mo- ris|in e\- * *|is i- gnem~ ac- cen-|de, in e- is i-|gnem, in e- is i-|
 d2 c2 B4 A8 | z16 | z8 z4 G4 | c8 B4 d4- | d4 (e6 d2 d4- | d4 ^c4) d8 | z8 z4 D4- | %40
w: gnem~ ac- cen- de,||et|tu- i a\-|* mo\- * *|* * ris|in|
 D4 (d4 c4) B4 | z2 A2 B2 c2 d4 D4 | z4 (G6 ^FE F4) | G8 C4 z2 c2- | c2 c2 B4 A8 | B16 |] %46
w: * e\- * is|i- gnem~ ac- cen- de,|ac\- * * *|cen- de, i\-|* gnem~ ac- cen-|de.|
V:4
 z16 | z16 | z16 | z16 ||[M:3/2] G,4 E,4 D,4 | C,8 G,,4 |[M:3/2] z12 | z12 | F,4 D,4 C,4 | %9
w: ||||Re- ple tu-|o- rum,|||re- ple tu-|
 _B,,8 F,,4 || F,8 E,4 ^F,4 | (G,8 D,6) D,2 | G,,8 z8 | z8 (C,6 D,2 | E,2 F,2 G,4) C,8 | %15
w: o- rum|cor- da fi-|de\- * li-|um,|ve\- *|* * * ni,|
 (G,,6 A,,2 B,,2 C,2 D,4) | G,,4 G,8 A,4 | G,6 G,2 C,8 ||[M:3/2] z12 | z12 | C,4 A,,4 G,,4 | %21
w: ve\- * * * *|ni san- cte|Spi- ri- tus,|||re- ple tu-|
 C,8 G,,4 |[M:3/2] G,4 E,4 D,4 | G,8 C,4 || F,8 E,4 ^C,4 | (D,8 A,,6) A,,2 | D,8 D,8 | %27
w: o- rum,|re- ple tu-|o- rum|cor- da fi-|de\- * li-|um: et|
 G,8 E,4 ^F,4 | (^G,2 A,4 G,2) A,8 | z16 | z8 z4 C,4 | (G,6 F,2 E,4) D,2 D,2 | %32
w: tu- i a-|mo\- * * ris||in|e\- * * is i-|
 E,2 F,2 (G,2 F,E, D,8 | E,8) A,,8 | z16 | z4 D,4 G,8 | E,4 ^F,4 G,4 G,,4 | z16 | %38
w: gnem~ ac- cen\- * * *|* de,||et tu-|i a- mo- ris||
 z4 A,,4 (D,6 C,2 | B,,4) A,,2 A,,2 B,,2 C,2 D,4 | G,,8 C,4 G,4- | G,2 F,2 E,4 D,4 z2 D,2 | %42
w: in e\- *|* is i- gnem ac- cen-|de, in e\-|* is i- gnem, in|
 E,2 F,2 G,4 D,8 | z4 G,,4 (A,,3 B,, C,4 | D,16) | G,,16 |] %46
w: e- is i- gnem|ac- cen\- * *||de.|

